X:153
T: Changge yao shu liu sanjie
N: C0257
O: China, Guangxi, Yishan
S: II, 491]
N: Der Sage nach sind alle Berglieder von einer heiligen Saengerin,
N: so auch dieses.
N: Vereinzelt Verzierungen.
R: Shange. Chang shangeshou]
M: 2/4
L: 1/16
K: C
G2E2E2G2 | G4G2Ac | c2d6- | d2g2A2c2
c2c2d2cd | A2G2G4
d2d2A2G2 | G2c2d2c2 | cdA6 | G6Ac
c2dcAcAG | G8- | G8
E2G2G2G2 | A2G2G2Ac | c2d6- | d2g2A2c2
c2c2d2d2 | A2G2G4
d2d2A2g2 | G2c2c2c2 | dcA6 | G6Ac
c2dcAcAG | G8- | G8

